X:1
T:Kattens Nyheter
R:Polska
D:Ung Folkmusik I Medelpad utgiven av Medelpads spelmansförbund
M:3/4
L:1/8
K:G
|: b>a g<f e>d | (3ef(g g)<d B>A | G>A B<c d>g | g<f d4 | b>a g<f e>d | (3ef(g g)<d B>A | G>A B<G B>A | G<F G4 :|
|: D>F D<F D>F | E>G E<G E>G | F>A F<A F>A | G>B G<B (3GBd | e>d c<B A>G | B>G A<G F>E | D>F A<F G>A | (3BcB (3ABA (3GAG | (3FAF G4 :|

